img/list-marker-7@35px.svg

<?xml version="1.0" encoding="UTF-8"?>
<svg width="24px" height="24px" viewBox="0 0 24 24" version="1.1" xmlns="http://www.w3.org/2000/svg" xmlns:xlink="http://www.w3.org/1999/xlink">
    <!-- Generator: Sketch 64 (93537) - https://sketch.com -->
    <title>list-marker-7@35px</title>
    <desc>Created with Sketch.</desc>
    <g id="list-marker-7@35px" stroke="none" stroke-width="1" fill="none" fill-rule="evenodd">
        <path d="M12,4 C16.418278,4 20,7.581722 20,12 C20,16.418278 16.418278,20 12,20 C7.581722,20 4,16.418278 4,12 C4,7.581722 7.581722,4 12,4 Z M13.9985455,9.09090909 L9.81818182,9.09090909 L9.81818182,10.1643636 L13.4138182,10.1643636 L10.4116364,15.2610909 L10.4989091,15.3483636 L11.808,15.3483636 L13.9985455,9.76290909 L13.9985455,9.09090909 Z" id="Combined-Shape" fill="#5C7D7B"></path>
    </g>
</svg>

<svg width="24" height="24" xmlns="http://www.w3.org/2000/svg"><path d="M12 4a8 8 0 110 16 8 8 0 010-16zm1.999 5.09h-4.18v1.074h3.595l-3.002 5.097.087.087h1.309l2.19-5.585V9.09z" fill="#5C7D7B" fill-rule="evenodd"/></svg>
